X:62
T:62 The Golden Fish
C:Welch MS
I:abc2nwc
M:6/8
L:1/8
K:D
d3/2e/2d AFA|dfd ecA|dcd AFA|Bec d2z|d3/2e/2d AFA|dfd ecA|dcd AFA|Bec d2z|]
dAd BAG|eBe cBA|efg fed|eBc d2z|dAd BAG|eBe cBA|efg fed|eBc d2z|]

